!!!COM: Haydn, Franz Joseph
!!!OTL: String Quartet in C Major
!!!OPS: Opus 20
!!!ONM: No. 2
!!!OMD: Fuga a quattro soggeti: Allegro
!!!OMV: 4
!!!SCT: H III:32
!!!SCA: Thematisch-bibliographisches Werkevererzeichnis (A. van Hoboken)
!!!YOR: Trautwein Edition
!!!ENC: Frances Bennion
!!!CDT: 1732/3/31/-1809/5/31/
!!!CNT: Oesterreich
!!!YEC: Copyright (c) 1994, 2000 Center for Computer Assisted Research in the Humanities
!!!YEM: Rights to all derivative editions reserved.
!!!YEM: Refer to licensing agreement for further details.
!!!YEN: United States of America
**tshrm	**tsroot	**kern	**kern	**kern	**kern
*k[]	*k[]	*k[]	*k[]	*k[]	*k[]
*	*	*C:	*C:	*C:	*C:
*	*	*clefF4	*clefC3	*clefG	*clefG
*M6/8	*M6/8	*M6/8	*M6/8	*M6/8	*M6/8
.	G	2.r	2.r	2.r	8r
.	G	.	.	.	8g
Ib	G	.	.	.	8g
.	D	.	.	.	8gg
Vb	D	.	.	.	8ff#
iic	C	.	.	.	8ff
=2	=2	=2	=2	=2	=2
.	C	2.r	2r	2.r	8ee
.	G	.	.	.	8cc
V7d	D	.	.	.	8b
.	D	.	.	.	4a
Ib	D	.	8f	.	.
ii	G	.	[8f	.	8dd
=3	=3	=3	=3	=3	=3
.	G	2.r	8f]	2.r	4g
IVc	C	.	16g	.	.
.	C	.	16f	.	.
V7b	D	.	4e	.	8cc
.	D	.	.	.	8f
.	F	.	8d	.	8ff
I	G	.	8c	.	8ff
=4	=4	=4	=4	=4	=4
.	G	2.r	4.B	2r	8ff
.	G	.	.	.	16gg
.	G	.	.	.	16ff
.	C	.	.	.	16ee
.	C	.	.	.	16dd
.	C	.	4.c	.	8ee
V7b/IV	C	.	.	8c	16e
.	C	.	.	.	16f
IV	C	.	.	8c	16e
.	C	.	.	.	16d
=5	=5	=5	=5	=5	=5
V	C	2.r	8C	8cc	4c
V7b	C	.	8D	8b	.
I	F	.	8E	8b-	2r
vi	G	.	8F	8a	.
vi7d	G	.	8A	8g	.
V7b/V	C	.	8B	8f	.
=6	=6	=6	=6	=6	=6
.	A	2.r	8c	4e	8r
V	A	.	8A	.	8cc
I	D	.	8G	8a	4cc
.	D	.	4F#	4d	.
.	G	.	.	.	16dd
.	G	.	.	.	16cc
V7/V	C	.	8G	8g	[8b
=7	=7	=7	=7	=7	=7
.	C	2.r	4.e	8c	8b]
.	C	.	.	8cc	8a
V	D	.	.	8cc	8g
.	D	.	4.d	8cc	4.f#
.	D	.	.	16dd	.
.	D	.	.	16cc	.
.	G	.	.	16b	.
.	G	.	.	16a	.
=8	=8	=8	=8	=8	=8
.	G	2.r	8r	8b	4g
V7d	G	.	8G	16B	.
.	G	.	.	16c	.
Ib	G	.	8G	16B	8r
.	G	.	.	16A	.
ii7d	G	.	8g	4G	8g
iiic	G	.	8f#	.	8a
iic	C	.	8f	8r	8b
=9	=9	=9	=9	=9	=9
.	D	2.r	8e	2r	8cc
ii7	E	.	8c	.	8dd
V7	D	.	8B	.	8ee
.	D	.	4A	.	8ff
I	D	.	.	8f	8dd
iib	G	.	8d	[8f	8cc
=10	=10	=10	=10	=10	=10
.	G	2.r	4G	8f]	4b
IVc	C	.	.	16g	.
.	C	.	.	16f	.
V7b	D	.	8c	4e	8cc
.	D	.	8F	.	4.a
.	F	.	8f	8d	.
I	G	.	8f	8c	.
=11	=11	=11	=11	=11	=11
.	G	2r	8f	4.B	4g
.	G	.	16g	.	.
.	G	.	16f	.	.
.	C	.	16e	.	2r
.	C	.	16d	.	.
.	C	.	8e	8c	.
V7d/IV	C	8C	16E	4r	.
.	C	.	16F	.	.
iic	C	8C	16E	.	.
.	C	.	16D	.	.
=12	=12	=12	=12	=12	=12
V	C	8c	4C	8c	16e
.	C	.	.	.	16c
V7d	C	8B	.	8d	16f
.	C	.	.	.	16c
vic	D	8B-	2r	8e	16g
.	r	.	.	.	16c
.	G	8A	.	8f	4a
vi7	G	8G	.	8a	.
V7/V	A	8F	.	8b	8r
=13	=13	=13	=13	=13	=13
.	A	4E	8r	8cc	2r
V	A	.	8cc	8a	.
I	D	8A	4cc	8g	.
.	D	4D	.	4f#	.
.	G	.	16dd	.	8A
.	G	.	16cc	.	.
V7d/V	C	8G	[8b	8g	8B
=14	=14	=14	=14	=14	=14
.	C	8C	8b]	4.ee	8c
.	C	8c	8a	.	8f#
Vb	D	8c	8g	.	8g
.	D	8c	4.f#	[4.dd	4a
.	D	16d	.	.	.
.	D	16c	.	.	.
.	G	16B	.	.	8r
.	G	16A	.	.	.
=15	=15	=15	=15	=15	=15
.	G	4B	4g	4dd]	8r
V7	G	.	.	.	8g
I	G	2r	8r	8r	8g
.	G	.	8G	16B	8gg
.	G	.	.	16G	.
iii	G	.	8A	16c	8ff#
.	G	.	.	16G	.
iib	C	.	8B	16d	8ff
.	r	.	.	16G	.
=16	=16	=16	=16	=16	=16
.	C	2r	8c	4e	8ee
ii7b	E	.	8d	.	8cc
V7d	D	.	8e	2r	8b
.	D	.	8f	.	4a
Ib	D	8F	8d	.	.
ii	G	[8F	8c	.	8dd
=17	=17	=17	=17	=17	=17
.	G	8F]	4B	8r	4g
IVc	C	16G	.	8d	.
.	C	16F	.	.	.
V7b	D	4E	8c	8e	8cc
.	D	.	4.A	8f	8f
.	F	8D	.	8b	8ff
I	G	8C	.	8cc	8ff
=18	=18	=18	=18	=18	=18
.	G	4.BB	[2G	4.dd	8ff
.	G	.	.	.	16gg
.	G	.	.	.	16ff
ii7b	C	.	.	.	16ee
.	C	.	.	.	16dd
V7d	C	4C	.	8cc	8ee
.	C	.	8G]	8ee	8gg
Ib	D	8r	8e	8ee	[8ccc
=19	=19	=19	=19	=19	=19
IV	G	2.r	8f	4.dd	8ccc]
.	G	.	16g	.	4.bb
.	G	.	16f	.	.
Vc	C	.	16e	.	.
.	r	.	16d	.	.
.	F	.	8e	4.cc	.
.	F	.	8f	.	[4aa
vi7b	G	.	8c	.	.
=20	=20	=20	=20	=20	=20
ii	G	2.r	8d	4.b	8aa]
.	G	.	16e	.	4.gg
.	G	.	16d	.	.
V7b	A	.	16c	.	.
.	A	.	16B	.	.
I	D	.	8c	4.a	.
.	D	.	8d	.	[4ff
ii7b	G	.	8A	.	.
=21	=21	=21	=21	=21	=21
V7d	C	4r	8B	4.g	8ff]
.	C	.	8c	.	8ee
Ib	D	8E	4cc	.	8ee
IV	G	8F	.	8a	4.dd
.	G	16G	[4b	[4g	.
.	G	16F	.	.	.
*Am:	*Am:	*	*	*	*
V7c/iii	C	16E	.	.	.
.	C	16D	.	.	.
=22	=22	=22	=22	=22	=22
V7d	F	8E	8b]	8g]	4.cc
.	F	8F	4.a	4.f	.
ib	G	8C	.	.	.
V7/V	E	8D	.	.	4.b
V7	E	16E	8g#	8e	.
.	E	16D	.	.	.
i	A	16C	8g#	8e	.
.	r	16BB	.	.	.
=23	=23	=23	=23	=23	=23
.	B	8C	8e	8ee	4a
VII	E	8BB	8f#	8dd#	.
ivb	A	8E	8g#	8dd	2r
.	A	4AA	4a	8cc	.
VIIc	G	.	.	8a	.
iv	D	8r	8r	8g	.
=24	=24	=24	=24	=24	=24
.	D	2.r	8r	4f	2.r
iv7d	G	.	8d	.	.
.	D	.	4d	8b	.
.	D	.	.	4e	.
.	D	.	16e	.	.
.	D	.	16d	.	.
V7b	D	.	[8c	8a	.
=25	=25	=25	=25	=25	=25
.	D	2r	8c]	8d	2.r
.	D	.	8B	8dd	.
ic	E	.	8A	8dd	.
V	E	.	4.G#	8dd	.
V7d	E	8EE	.	16ee	.
.	E	.	.	16dd	.
ib	A	8EE	.	16cc	.
.	A	.	.	16b	.
=26	=26	=26	=26	=26	=26
.	E	8E	8A	8cc	2.r
i7d	E	8D#	8G#	8b	.
.	A	8D	4r	8e	.
Dim	A	8C	.	[4.a	.
ii7	A	8AA	8E	.	.
V7	A	8GG	8E	.	.
=27	=27	=27	=27	=27	=27
.	A	4FF	8e	8a]	2.r
i	B	.	8d#	8a	.
iv7	E	8BB	8d	8a	.
.	E	4EE	4d	4g#	.
V7d	D	8AA	8c	8a	.
=28	=28	=28	=28	=28	=28
.	D	8DD	8c	4.f	2.r
.	D	8D	8B	.	.
*C:	*C:	*	*	*	*
vib	E	8D	8A	.	.
vi7b	E	8D	4.G#	[4.e	.
V7b/ii	E	16E	.	.	.
.	E	16D	.	.	.
ii	A	16C	.	.	.
.	A	16BB	.	.	.
=29	=29	=29	=29	=29	=29
ii7	A	4C	4A	8e]	8a
.	A	.	.	8A	16aa
.	A	.	.	.	16gg
V7	D	8C#	2r	8a	16ff
.	D	.	.	.	16ee
.	D	4.D	.	8a	[4.ff
Ic	D	.	.	16dd	.
.	D	.	.	16cc	.
.	G	.	.	16b	.
.	r	.	.	16a	.
=30	=30	=30	=30	=30	=30
V	G	4GG	8r	4b	8ff]
V7d	C	.	8G	.	16gg
.	C	.	.	.	16ff
Ib	C	2r	8G	8cc	16ee
.	C	.	.	.	16dd
.	G	.	8g	8cc	8ee
.	G	.	8f#	8b	8dd
ii	C	.	8f	8g	8r
=31	=31	=31	=31	=31	=31
II	C	2.r	4.e	4cc	8r
V7	C	.	.	.	8g
I	D	.	.	8g	8g
.	D	.	4d	4a	8gg
.	G	.	.	.	8ff#
.	C	.	8G	8b	8ff
=32	=32	=32	=32	=32	=32
V7b	C	8r	8c	4cc	4ee
v7b	C	8C	8e	.	.
IVb	C	8C	8e	2r	8r
.	G	8c	8e	.	8cc
.	G	8B	8f	.	8dd
V	F	8B-	8g	.	8ee
=33	=33	=33	=33	=33	=33
.	F	4.A	4a	8r	4ff
V7/IV	F	.	.	8cc	.
IV	G	.	8f	8cc	2r
.	G	4G	4d	8ccc	.
.	C	.	.	8bb	.
.	F	8C	8e	8bb-	.
=34	=34	=34	=34	=34	=34
vic	F	4F	4f	4aa	8r
Dim	F	.	.	.	8f
vb	F	2r	2r	4.r	8f
iic	A	.	.	.	8ff
iio	A	.	.	.	8ee
V	G	.	.	8a	8ee-
=35	=35	=35	=35	=35	=35
.	D	2.r	2.r	8b-	4dd
V7b	D	.	.	8a	.
I	G	.	.	8a-	8ff#
iiic	G	.	.	4g	8gg
Dim	G	.	.	.	8ff#
*Dm:	*Dm:	*	*	*	*
V	C	.	.	8b	8ff
=36	=36	=36	=36	=36	=36
.	E	2r	2r	8cc	4ee
V7	E	.	.	8b	.
i	A	.	.	8b-	8gg#
.	A	.	.	4a	8aa
Dim	A	8r	8r	.	8gg#
IV	D	8A	8c#	8ee	8gg
=37	=37	=37	=37	=37	=37
.	D	8B-	8d	4dd	4ff
V7b/VII	D	8A	8c#	.	.
VII	G	8A-	8c	8f#	2r
IVb	G	4G	4B	8g	.
ivb	G	.	.	8f#	.
V	C	8B	8d#	8f	.
=38	=38	=38	=38	=38	=38
.	G	8c	8e	4e	2.r
V7b	G	8B	8d#	.	.
i	A	8B-	8d	8g#	.
.	A	4A	4c#	8a	.
ivc	A	.	.	8g#	.
vb	D	8c#	8e	8g	.
=39	=39	=39	=39	=39	=39
.	D	4.d	4.f	8f	2.r
.	G	.	.	8a	.
i	A	.	.	4b-	.
.	A	4.c	4.e	.	.
ivb	A	.	.	8g#	.
v7	D	.	.	[8a	.
=40	=40	=40	=40	=40	=40
.	D	4.B-	4.d	8a]	2.r
i7c	G	.	.	8dd	.
iv7	A	.	.	4g	.
V7d	A	4.A	4.c	.	.
ib	D	.	.	8e	.
V7c	G	.	.	[8f	.
=41	=41	=41	=41	=41	=41
.	A	4G	4B-	8f]	8r
.	D	.	.	8e	8a
i	A	8F	8A	8d	8a
.	A	4.E	4.G	4.c#	8aa
.	A	.	.	.	8gg#
V	D	.	.	.	8gg
=42	=42	=42	=42	=42	=42
.	D	4D	8A	8d	4ff
V7b	D	.	8d	8a	.
i	A	8r	8f	8a	8dd
.	A	8A	4e	8aa	16cc#
.	A	.	.	.	16a
i7b	A	8B	.	8gg#	16dd
.	A	.	.	.	16a
iv	D	8c#	8r	8gg	16ee
.	D	.	.	.	16a
=43	=43	=43	=43	=43	=43
iiob	D	8d	2r	8ff	4ff
iio7	D	8e	.	8dd	.
V7d	G	8f	.	8cc	2r
.	E	8g	.	4b-	.
ib	E	8e	8G	.	.
iv7d	A	8d	[8G	8ee	.
=44	=44	=44	=44	=44	=44
.	A	4c#	8G]	4a	8r
.	D	.	16A	.	8e
.	D	.	16G	.	.
V7b	G	8d	4F	8dd	8f
.	G	4.B-	.	8g	8g
.	G	.	8E	8gg	8cc#
i	A	.	8D	8gg	8dd
=45	=45	=45	=45	=45	=45
.	A	4A	4C#	8gg	4.ee
.	A	.	.	16aa	.
.	A	.	.	16gg	.
I	D	4r	8c#	16ff	.
.	D	.	.	16ee	.
.	D	.	8d	8ff	4.ff
V7d/IV	D	8D	8a	16f	.
.	D	.	.	16g	.
*F:	*F:	*	*	*	*
iib	D	8D	8a	16f	.
.	D	.	.	16e	.
=46	=46	=46	=46	=46	=46
vi7c	D	8d	4.a	8d	4.ff#
ii	D	8c#	.	8dd	.
vib	G	8c	.	8dd	.
.	D	8B-	8b-	[4.dd	8gg
iib	G	8A	8cc	.	8aa
.	D	8G	8dd	.	8bb-
=47	=47	=47	=47	=47	=47
.	D	4F	4a	4dd]	8aa
iii7	G	.	.	.	8ddd
vi7	G	8B-	8d	8gg	4ddd
.	G	4E	4g	4.gg	.
ii7	A	.	.	.	16aa
.	A	.	.	.	16bb-
V7	D	8A	8c	.	[8ccc
=48	=48	=48	=48	=48	=48
.	D	4D	4f	4.ff	8ccc]
Ic	G	.	.	.	16bb-
.	G	.	.	.	16aa
V	C	8G	4r	.	4bb-
.	C	[4.C	.	4ee	.
V7d	F	.	8C	.	16aa
.	F	.	.	.	16gg
Ib	C	.	8C	8ff	8aa
=49	=49	=49	=49	=49	=49
II	C	2.C]	8c	8ee	4gg
V7b	C	.	8B	8c	.
I	F	.	8B-	8c	2r
.	G	.	8A	8cc	.
.	C	.	8G	8b	.
IVb	F	.	8E	8b-	.
=50	=50	=50	=50	=50	=50
V	F	4FF	4F	8a	8r
v	F	.	.	8f	8f
IV	B-	2r	2r	8f	8f
.	C	.	.	8dd	8ff
.	C	.	.	8cc#	8ee
.	B-	.	.	8cc	8ee-
=51	=51	=51	=51	=51	=51
Ib	B-	8r	8r	4b-	4dd
ib	B-	8BB-	8D	.	.
II	B-	8BB-	8D	2r	2r
viib	F	8B-	8d	.	.
Vb	F	8A	8c#	.	.
.	G	8A-	8c	.	.
=52	=52	=52	=52	=52	=52
vb	E	4G	4B	8r	8r
vi	C	.	.	8e	8g
V	C	2r	2r	8e	8g
.	C	.	.	8ee	8gg
.	D	.	.	8dd#	8ff#
.	C	.	.	8dd	8ff
=53	=53	=53	=53	=53	=53
v	C	8r	8r	4cc	4ee
iib	C	8CC	8E	.	.
III	C	8CC	8E	2r	2r
Ib	C	8C	8e	.	.
.	G	8BB	8d#	.	.
.	A	8BB-	8d	.	.
=54	=54	=54	=54	=54	=54
Vb	F	4AA	4c#	8r	8r
vb	F	.	.	8f	8a
vi	F	2r	2r	8f	8a
IIIb	C	.	.	8ff	8aa
Vb	C	.	.	8ee	8gg#
ii7c	D	.	.	8ee-	8gg
=55	=55	=55	=55	=55	=55
.	A	2.r	2.r	8dd	8ff
.	C	.	.	8cc#	8ee
*D:	*D:	*	*	*	*
Vb	G	.	.	8ee	8gg
.	G	.	.	8dd	8ff
.	G	.	.	8b-	8dd
.	A	.	.	8d	8g#
=56	=56	=56	=56	=56	=56
IV	A	8r	4.r	4c#	4a
V7d	A	8AA	.	.	.
Ib	A	8AA	.	8r	2r
.	G	8A	16c#	8a	.
.	G	.	16A	.	.
.	A	8G#	16d	8b	.
.	A	.	16A	.	.
.	D	8G	16e	8cc#	.
.	D	.	16A	.	.
=57	=57	=57	=57	=57	=57
.	D	4F#	4f#	4dd	8r
V7/IV	D	.	.	.	8dd
*C:	*C:	*	*	*	*
V	D	8r	8r	2r	8dd
.	D	16F#	8D	.	8ddd
.	D	16D	.	.	.
.	D	16G	8E	.	8ccc#
.	D	16D	.	.	.
.	G	16A	8F#	.	8ccc
.	r	16D	.	.	.
=58	=58	=58	=58	=58	=58
vi7	G	4B	4G	8r	4bb
V7b	G	.	.	8g	.
I	G	8r	2r	8g	8r
.	A	8G	.	8gg	16b
.	A	.	.	.	16g
.	G	8A	.	8ff#	16cc
.	G	.	.	.	16g
IV	C	8B	.	8ff	16dd
.	C	.	.	.	16g
=59	=59	=59	=59	=59	=59
.	C	4c	8c	4ee	8ee
.	C	.	8d	.	8cc
iib	F	2r	8e	8r	8cc
.	F	.	[4.f	16ee	8ccc
.	F	.	.	16cc	.
IVc	F	.	.	16ff	8bb
.	F	.	.	16cc	.
V7b	D	.	.	16gg	8bb-
.	D	.	.	16cc	.
=60	=60	=60	=60	=60	=60
I	D	8r	2f]	4.aa	4aa
iiic	F	8d	.	.	.
iic	G	8c	.	.	2r
.	C	8B	.	4.gg	.
.	E	8c	8e	.	.
V7b/vi	D	8B	[8ee	.	.
=61	=61	=61	=61	=61	=61
vi	D	8A	8ee]	4.ff	2.r
vi7d	D	8B	16dd	.	.
.	D	.	16cc#	.	.
V7b/V	E	8A	4dd	.	.
V	A	8G#	.	4.ee	.
viic	A	8A	8cc	.	.
*Em:	*Em:	*	*	*	*
ivc	D	8G	[8cc	.	.
=62	=62	=62	=62	=62	=62
.	G	8F#	8cc]	4.dd	2.r
.	B	8G	16b	.	.
.	B	.	16a	.	.
V7b	A	8F#	4b	.	.
i	A	8E	.	4.cc	.
vb	A	8F#	8a	.	.
ivb	B	8E	[8a	.	.
=63	=63	=63	=63	=63	=63
.	E	8D#	8a]	2b	2.r
.	B	8E	8g	.	.
V7	A	8D	8f#	.	.
.	A	4.C	4.e	.	.
ic	A	.	.	16a	.
.	r	.	.	16g#	.
V	B	.	.	[8a	.
=64	=64	=64	=64	=64	=64
.	B	2BB	4d#	8a]	8r
V7b	E	.	.	16g	8b
.	E	.	.	16f#	.
i	B	.	8e	8g	8b
.	B	.	16d#	4f#	8bb
.	B	.	16B	.	.
i7b	B	8C#	16e	.	8aa#
.	B	.	16B	.	.
iv	E	8D#	16f#	8r	8aa
.	r	.	16B	.	.
=65	=65	=65	=65	=65	=65
.	E	8E	4g	2r	8gg
ii7d	E	8F#	.	.	8ee
V7b	A	8G	4r	.	8dd
.	A	4A	.	.	4cc
i	F#	.	8f#	8a	.
iv7b	B	8r	8e	[8a	8ff#
=66	=66	=66	=66	=66	=66
.	B	2.r	4d#	8a]	4b
.	E	.	.	16b	.
.	E	.	.	16a	.
V7	A	.	8e	4g	8ee
.	A	.	4.c	.	8a
.	A	.	.	8f#	8aa
i	B	.	.	8e	8aa
=67	=67	=67	=67	=67	=67
.	B	2r	4.B	4.d#	8aa
.	B	.	.	.	16bb
.	B	.	.	.	16aa
.	E	.	.	.	16gg
.	E	.	.	.	16ff#
Vb	E	.	4.e	4e	8gg
V7d/IV	E	8E	.	.	16g
.	E	.	.	.	16a
ivb	E	8E	.	8r	16g
.	E	.	.	.	16f#
=68	=68	=68	=68	=68	=68
V	B	8e	[2.e	2.r	8e
iv	E	8d#	.	.	8f#
ib	A	8d	.	.	8g#
.	B	8c	.	.	8a
.	A	8B	.	.	8b
*G:	*G:	*	*	*	*
Vb	E	8A	.	.	8cc
=69	=69	=69	=69	=69	=69
.	E	4G	4e]	8r	4.b
iii7	E	.	.	8ee	.
vi7	D	8c	2r	4ee	.
.	D	4F#	.	.	4.a
ii7	B	.	.	16dd	.
.	B	.	.	16cc#	.
V7	E	8B	.	[8dd	.
=70	=70	=70	=70	=70	=70
.	E	4E	2r	8dd]	4.g
Ic	A	.	.	16cc	.
.	A	.	.	16b	.
V	D	8A	.	4cc	.
.	D	4.D	.	.	4f#
V7b	G	.	8d	16b	.
.	r	.	.	16a	.
I	D	.	8d	8b	8g
=71	=71	=71	=71	=71	=71
ii7	D	8D	8dd	4a	16f#
.	D	.	.	.	16d
iii	D	8E	8cc#	.	16g
.	D	.	.	.	16d
iib	G	8F#	8cc	2r	16a
.	G	.	.	.	16d
.	A	8G	8b	.	4b
.	B	8A	8g	.	.
V7d	A	8B	8f#	.	8r
=72	=72	=72	=72	=72	=72
.	A	4c	4e	8r	2r
Ib	A	.	.	8c	.
ii	D	2r	8a	4c	.
II	D	.	8d	.	.
V7	G	.	8f#	16d	8dd
.	G	.	.	16c	.
I	A	.	8g	8B	8dd
=73	=73	=73	=73	=73	=73
.	A	2.r	8e	8A	8ddd
iii	D	.	8A	8e	8ccc#
iib	G	.	8d	8f#	8ccc
.	G	.	8G	4g	8bb
ii7b	B	.	8A	.	8gg
V7d	A	.	8B	8r	8ff#
=74	=74	=74	=74	=74	=74
.	A	8r	8c	2r	4ee
Ib	A	8c	8a	.	.
ii	D	4c	8g	.	8aa
.	D	.	4f#	.	4dd
IVc	G	16d	.	8a	.
.	G	16c	.	.	.
V7b	A	[8B	8g	8b	8gg
=75	=75	=75	=75	=75	=75
.	A	8B]	4.e	8cc	8cc
.	C	8A	.	8ff#	8ccc
I	D	8G	.	8gg	8ccc
.	D	4.F#	[4.d	4aa	8ccc
vib	D	.	.	.	16ddd
.	D	.	.	.	16ccc
V	G	.	.	8dd	16bb
.	G	.	.	.	16aa
=76	=76	=76	=76	=76	=76
.	G	4G	4d]	8dd	4bb
.	E	.	.	8gg	.
IVb	D	2r	2r	4gg	8eee
.	D	.	.	.	4aa
iib	D	.	.	16ff#	.
.	D	.	.	16ee	.
V7d	C	.	.	8ff#	8ddd
=77	=77	=77	=77	=77	=77
.	C	2.r	8r	4ee	4gg
Ib	A	.	8cc	.	.
ii	D	.	4cc	8aa	8ccc
.	D	.	.	4dd	4ff#
ii7d	G	.	16dd	.	.
.	r	.	16cc	.	.
V7	A	.	[8b	8gg	8bb
=78	=78	=78	=78	=78	=78
.	A	4.r	8b]	8cc	4ee
I	A	.	8a	8cc	.
IV	D	.	8g	4cc	8aa
.	D	4d	4f#	.	4.dd
Vb	G	.	.	16dd	.
.	G	.	.	16cc	.
Ib	C	8g	[8g	[8b	.
=79	=79	=79	=79	=79	=79
.	C	4c	8g]	8b]	4ee
IVb	D	.	16a	16cc	.
.	D	.	16g	16b	.
ii7	G	8f#	4f#	4a	8a
.	G	4B	.	.	4dd
v	C	.	16g	16b	.
.	C	.	16f#	16a	.
V7/IV	A	8e	[8e	[8g	8gg
=80	=80	=80	=80	=80	=80
.	A	4A	8e]	8g]	4cc
IV	D	.	16f	16a	.
.	D	.	16e	16g	.
I	G	8d	4d	4f	8ff
.	G	4G	.	.	4b
.	C	.	16e	16g	.
.	C	.	16d	16f	.
.	G	8c	16e	8e	8cc
.	G	.	16f	.	.
=81	=81	=81	=81	=81	=81
V7b	G	8G	4g	8g	8b
V7d/IV	G	8GG	.	8G	8B
IVb	G	8GG	2r	8G	8B
.	D	8G	.	8G	8B
.	G	8F#	.	8A	8c
V	C	8F	.	8B	8d
=82	=82	=82	=82	=82	=82
.	C	4.E	8r	4c	4e
V7/IV	C	.	8G	.	.
IV	D	.	8G	8G	2r
.	D	4D	8g	4A	.
.	G	.	8f#	.	.
.	C	8G	8f	8B	.
=83	=83	=83	=83	=83	=83
Ic	C	4C	4e	4c	8r
i	C	.	.	.	8c
vb	C	2r	2r	8r	8c
.	G	.	.	8c	8cc
IIc	G	.	.	8d	8b
V7b	D	.	.	8e	8b-
=84	=84	=84	=84	=84	=84
I	D	2.r	2r	8f	8a
VI	A	.	.	8d	8dd
Vb	D	.	.	8e	8cc#
.	G	.	.	8f#	8cc
V7c	E	.	8r	8g	8b
*F:	*F:	*	*	*	*
I	D	.	8e	8g#	8ee
=85	=85	=85	=85	=85	=85
V7c	D	2.r	8f#	8a	8dd#
v7	D	.	8g#	8b	8dd
iib	F	.	8a	8cc	8cc
II	C	.	8f	8a	8ff
V7c/ii	C	.	8g	8b-	8ee
V7b/V	G	.	8a	8cc	8ee-
=86	=86	=86	=86	=86	=86
V	G	8r	8b-	8dd	8dd
III	D	8G	8dd	8b	8gg
V7c/iii	G	8A	8dd	8cc	8ff#
V7b/vi	C	8B	4g	8dd	8ff
vi	A	8c	.	8ee	8ee
iib	E	8A	[8ee	8cc#	8aa
=87	=87	=87	=87	=87	=87
.	A	8B	8ee]	8dd	8gg#
ii7d	D	8c#	8a	8ee	8gg
V7b	G	8d	8a	8ff	8ff
iiic	G	8B-	[4.g	4.dd	[4.bb-
.	G	8G	.	.	.
vi7b	C	8F	.	.	.
=88	=88	=88	=88	=88	=88
.	A	4E	8g]	2cc	8bb-]
.	A	.	8e	.	8aa
iic	D	2r	8e	.	8gg#
.	D	.	4.f	.	[4.aa
.	D	.	.	8dd	.
V7b	G	.	.	8a	.
=89	=89	=89	=89	=89	=89
.	G	2.r	4.d	2b-	8aa]
.	G	.	.	.	8bb-
V7b/vi	C	.	.	.	8ff#
.	C	.	4.e	.	[4.gg
.	C	.	.	8cc	.
vi	A	.	.	8g	.
=90	=90	=90	=90	=90	=90
.	A	2.r	4.c#	2a	8gg]
.	A	.	.	.	8aa
ii7b	D	.	.	.	8ee
V7	D	.	4.d	.	[4.ff
.	D	.	.	8b-	.
.	G	.	.	8a	.
=91	=91	=91	=91	=91	=91
.	C	8r	4.B-	2.g	8ff]
.	C	8CC	.	.	8ee
Ib	C	8CC	.	.	8dd
.	C	8C	8G	.	4.ee
V	C	8BB	8c	.	.
.	F	8BB-	8c	.	.
=92	=92	=92	=92	=92	=92
.	F	4AA	4c	4f	8ff
V7	C	.	.	.	8cc
Ib	C	8r	2r	8r	8cc
.	C	16EE	.	8c	8ccc
.	C	16CC	.	.	.
iii	C	16FF	.	8d	8bb
.	C	16CC	.	.	.
iib	F	16GG	.	8e	8bb-
.	r	16CC	.	.	.
=93	=93	=93	=93	=93	=93
.	F	4AA	2r	8f	8aa
ii7b	A	.	.	8g	8ff
V7d	G	2r	.	8a	8ee
.	G	.	.	8b-	4dd
Ib	G	.	8B-	8g	.
iib	C	.	[8B-	8f	8gg
=94	=94	=94	=94	=94	=94
.	C	8r	8B-]	4e	4cc
IVc	F	8G	16c	.	.
.	F	.	16B-	.	.
V7b	G	8A	4A	8f	8ff
.	G	8B-	.	4.d	8b-
.	B-	8e	8G	.	8bb-
I	C	8f	8F	.	8bb-
=95	=95	=95	=95	=95	=95
.	C	4g	4.E	2c	8bb-
.	C	.	.	.	16ccc
.	C	.	.	.	16bb-
.	F	2r	.	.	16aa
.	F	.	.	.	16gg
ii7	F	.	8F	.	8aa
V7b/IV	F	.	4r	8f	16a
.	F	.	.	.	16b-
IV	F	.	.	8f	16a
.	F	.	.	.	16g
=96	=96	=96	=96	=96	=96
V	G	2.r	8F	8ff	16a
.	G	.	.	.	16f
V7b	F	.	8G	8ee	16b-
.	F	.	.	.	16f
I	B-	.	8A	8ee-	16cc
.	r	.	.	.	16f
.	C	.	8B-	8dd	4dd
vib	C	.	8d	8cc	.
V	F	.	8e	8b-	8r
=97	=97	=97	=97	=97	=97
.	F	2.r	4f	4a	8r
.	D	.	.	.	8f
I	C	.	2r	8dd	4f
.	C	.	.	4g	.
.	C	.	.	.	16g
.	C	.	.	.	16f
V7b/V	F	.	.	8cc	[8e
=98	=98	=98	=98	=98	=98
.	F	2.r	2.r	8f	8e]
.	F	.	.	8ff	8d
V	G	.	.	8ff	8c
.	G	.	.	8ff	4.B
.	G	.	.	16gg	.
.	G	.	.	16ff	.
.	C	.	.	16ee	.
.	C	.	.	16dd	.
=99	=99	=99	=99	=99	=99
IIb	C	8r	8r	4ee	4c
iib	C	8C	8E	.	.
*Dm:	*Dm:	*	*	*	*
V7	C	8C	8E	4r	2r
.	G	8c	8e	.	.
VI	G	8B	8d#	8g	.
VIIc	A	8B-	8d	8g	.
=100	=100	=100	=100	=100	=100
V	A	4A	4c#	8gg	2r
.	B-	.	.	8ff#	.
ivb	C	8B-	4d	8ff	.
.	A	8G	.	4ee	.
.	A	8A	8c#	.	8a
VI	G	8A	8c#	8aa	8a
=101	=101	=101	=101	=101	=101
.	G	[2.B-	2d	2dd	8aa
.	G	.	.	.	8gg#
.	B-	.	.	.	8gg
V7d/iii	B-	.	.	.	[4.ff
vii7d	B-	.	8d	8f	.
ivb	B-	.	8d	8f	.
=102	=102	=102	=102	=102	=102
.	C	2.B-_	8dd	8ff	2ff]
.	C	.	8cc#	8ee	.
.	G	.	8cc	8ee-	.
.	G	.	8b-	[4.dd	.
.	G	.	8a	.	8ddd
ic	G	.	8g	.	8ddd
=103	=103	=103	=103	=103	=103
V7	G	4.B-]	4.g#	8dd]	8dd
v7	G	.	.	8d	8ee-
.	D	.	.	8d	8ee
.	A	4.A	8a	8dd	8ff
V7	A	.	8e	8cc#	8gg
ic	A	.	8f#	8cc	8aa
=104	=104	=104	=104	=104	=104
.	A	[2.AA	4g	8b-	4bb-
.	A	.	.	8a	.
V7	D	.	8c#	8g	8ee
.	D	.	4d	4f	4aa
.	A	.	8f	8b-	8dd
=105	=105	=105	=105	=105	=105
.	A	2.AA]	4e	8e	8gg
ic	A	.	.	8e	8g
*Gm:	*Gm:	*	*	*	*
iio	A	.	8d	4e	4g
.	A	.	4c#	.	.
VIb	D	.	.	16f	16a
.	r	.	.	16e	16g
Vb	A	.	8d	8d	8f
=106	=106	=106	=106	=106	=106
vb	A	4A	4c	8ee-	2.r
i	E-	.	.	8e-	.
V7/ii	D	8G	8B-	4e-	.
.	D	4F#	4A	.	.
.	G	.	.	16f	.
.	G	.	.	16e-	.
.	E-	8G	8B-	8d	.
=107	=107	=107	=107	=107	=107
.	E-	2.E-	2.B-	2.c#	8r
.	E-	.	.	.	8gg
ic	E-	.	.	.	8gg
.	E-	.	.	.	8g
.	E-	.	.	.	8a-
.	G	.	.	.	8a
=108	=108	=108	=108	=108	=108
.	G	2.D	2.G	2.d	8b-
.	G	.	.	.	8gg
V7/VII	G	.	.	.	8gg
.	G	.	.	.	8g
.	G	.	.	.	8a-
*C:	*C:	*	*	*	*
I	C	.	.	.	8a
=109	=109	=109	=109	=109	=109
.	C	2.C#	[2.E	[2.g	8b-
.	C	.	.	.	8gg
V7/IV	C	.	.	.	8gg
.	C	.	.	.	8g
.	C	.	.	.	8a-
.	C	.	.	.	8a
=110	=110	=110	=110	=110	=110
.	C	2.C	2.E]	8g]	8b-
.	C	.	.	8e	8gg
IVc	C	.	.	4e	8gg
.	C	.	.	.	8gg
.	C	.	.	8f	8ee
V7b/ii	F	.	.	[8g	8b-
=111	=111	=111	=111	=111	=111
.	F	4.C	4.F	8g]	8a
.	F	.	.	8f	8ff
ii	A	.	.	4f	8a
.	A	4.C#	4.A	.	8g
V7b	A	.	.	8e	8ee
I	D	.	.	[8e	8g
=112	=112	=112	=112	=112	=112
.	D	4D	4A	8e]	8f
.	G	.	.	8d	8dd
ii7b	C	8BB	8d	4d	8f
IV	C	4C	4G	.	8e
.	C	.	.	8c	8cc
V7b/V	D	8CC	8r	8c	8e
=113	=113	=113	=113	=113	=113
.	F	4.FF	2.A	2.c	8d
.	F	.	.	.	8a
V	D	.	.	.	8a
.	D	4.FF#	.	.	8a
.	D	.	.	.	8A
.	G	.	.	.	8c
=114	=114	=114	=114	=114	=114
.	G	[2.GG	4G	4B	8B
V7	G	.	.	.	8g
Ic	G	.	8r	2r	8g
.	G	.	8G	.	8gg
vi7d	G	.	8A	.	8ff#
V7	C	.	8B	.	8ff
=115	=115	=115	=115	=115	=115
.	C	2.GG_	8c	8r	4ee
v7	A	.	8d	8c	.
.	G	.	8e	8c	8aa
.	G	.	8f	8cc	4dd
.	G	.	8g	8b	.
V7	G	.	8e	8b-	8gg
=116	=116	=116	=116	=116	=116
.	G	2.GG_	4f	2a	8cc
Ic	G	.	.	.	16ff
.	r	.	.	.	16ee
V	G	.	8d	.	8ff
.	G	.	8g	.	4b
V7	C	.	8G	8g	.
Ic	G	.	8G	8e	8ee
=117	=117	=117	=117	=117	=117
.	G	2.GG_	8g	8c	4a
.	G	.	8f#	8d	.
Dim	C	.	8f	8B	8dd
Dim	C	.	4.e	4.c	8g
Dim	C	.	.	.	16cc
.	C	.	.	.	16b
Dim	C	.	.	.	8cc
=118	=118	=118	=118	=118	=118
V	C	2.GG_	8e-	8c	2.f#
Dim	C	.	8d	8B	.
V	C	.	8e-	8c	.
.	G	.	8e-	8c	.
.	C	.	8d	8B	.
.	G	.	8c	8A	.
=119	=119	=119	=119	=119	=119
.	G	8GG]	4d	4B	4g
iic	G	8G	.	.	.
vb	G	8G	2r	2r	2r
.	G	8GG	.	.	.
.	D	8AA-	.	.	.
Vb	G	8AA	.	.	.
=120	=120	=120	=120	=120	=120
vii	G	4.BB-	8r	2.r	2.r
Dim	G	.	8G	.	.
vib	G	.	8G	.	.
.	B	4.BB	8g	.	.
.	B	.	8f#	.	.
.	A	.	8f	.	.
=121	=121	=121	=121	=121	=121
.	A	8C	4e	2.r	2.r
vii	A	8A	.	.	.
vib	A	8A	2r	.	.
.	A	8AA	.	.	.
.	B	8BB-	.	.	.
VIb	A	8BB	.	.	.
=122	=122	=122	=122	=122	=122
.	A	4.C	8r	2.r	2.r
V7b/ii	A	.	8A	.	.
ii	A	.	8A	.	.
.	A	4.C#	8a	.	.
V7d/V	A	.	8g#	.	.
Vb	D	.	8g	.	.
=123	=123	=123	=123	=123	=123
.	D	8D	4f	2.r	2.r
V7b	D	8C#	.	.	.
I	G	8C	8f#	.	.
.	G	4.BB	8g	.	.
.	G	.	8f#	.	.
V	C	.	8f	.	.
=124	=124	=124	=124	=124	=124
.	C	4C	4e	2.r	8r
iic	C	.	.	.	8gg
vb	G	2r	2r	.	8gg
.	G	.	.	.	8g
.	D	.	.	.	8a-
V	G	.	.	.	8a
=125	=125	=125	=125	=125	=125
viic	G	2.r	2.r	8r	4.b-
Dim	G	.	.	8G	.
vic	G	.	.	8G	.
.	B	.	.	8g	4.b
.	B	.	.	8f#	.
.	A	.	.	8f	.
=126	=126	=126	=126	=126	=126
.	A	2.r	2.r	4e	8cc
iiic	A	.	.	.	8aa
vib	A	.	.	2r	8aa
.	A	.	.	.	8a
.	E	.	.	.	8b-
VI	A	.	.	.	8b
=127	=127	=127	=127	=127	=127
.	A	2.r	2.r	8r	4.cc
V7d/ii	A	.	.	8A	.
IIb	A	.	.	8A	.
.	A	.	.	8a	4.cc#
V7b/V	A	.	.	8g#	.
V	D	.	.	8g	.
=128	=128	=128	=128	=128	=128
.	D	2.r	2.r	4.f#	8dd
V7d	D	.	.	.	8cc#
I	G	.	.	.	8cc
V7b	G	.	.	8g	4.b
V7d/IV	G	.	.	8f#	.
ii7c	C	.	.	8f	.
=129	=129	=129	=129	=129	=129
.	G	8C	4g	8e	8cc
.	C	8BB	.	8f	8dd
V7/V	D	8BB-	8c	8g	8ee
V7b/ii	D	4AA	8c	4a	16ff
.	D	.	.	.	16gg
V7d/V	D	.	8f	.	16aa
.	D	.	.	.	16gg
Vb	D	8r	8r	8r	16ff
.	D	.	.	.	16ee
=130	=130	=130	=130	=130	=130
.	A	8D	4a	8f#	8dd
.	D	8C#	.	8g	8ee
III	G	8C	8d	8a	8ff#
V7b/iii	G	4BB	8d	4b	16gg
.	G	.	.	.	16aa
V7d/vi	G	.	8g	.	16bb
.	G	.	.	.	16aa
vib	E	8r	8r	8r	16gg
.	E	.	.	.	16ff#
=131	=131	=131	=131	=131	=131
.	B	8E	4b	8g#	8ee
vi7b	E	8D#	.	8a	8ff#
ii	A	8D	8e	8b	8gg#
.	A	8C	8e	4cc	16aa
.	A	.	.	.	16bb
.	A	8CC	8a	.	16ccc
.	A	.	.	.	16bb
.	D	8CC	8a	8r	16aa
.	D	.	.	.	16gg
=132	=132	=132	=132	=132	=132
.	D	8D	4.a	16ff	8ff
.	D	.	.	16gg	.
ii7b	D	8DD	.	16aa	8f
.	D	.	.	16gg	.
V	D	8DD	.	16ff	8f
.	D	.	.	16ee	.
.	D	8F	8A	8dd	16dd
.	D	.	.	.	16ee
.	D	8FF	16a	8d	16ff
.	D	.	16g	.	16ee
.	G	8FF	16f	8d	16dd
.	G	.	16e	.	16cc
=133	=133	=133	=133	=133	=133
.	G	8G	2d	16b	8b
.	G	.	.	16cc	.
V7b	G	8GG	.	16dd	8B
.	G	.	.	16cc	.
I	G	8GG	.	16b	8B
.	G	.	.	16a	.
.	G	8B	.	8g	16ddd
.	G	.	.	.	16ccc
.	G	8BB	16dd	8G	16bb
.	G	.	16cc	.	16aa
.	C	8BB	16b	8G	16gg
.	C	.	16a	.	16ff
=134	=134	=134	=134	=134	=134
.	C	8c	4.g	16ee	8ee
.	C	.	.	16ff	.
.	C	8C	.	16gg	8e
.	C	.	.	16ff	.
IV	C	8C	.	16ee	8e
.	C	.	.	16dd	.
.	C	8E	8G	8cc	16cc
.	C	.	.	.	16dd
.	C	8EE	16g	8c	16ee
.	C	.	16f	.	16dd
.	F	8EE	16e	8c	16cc
.	F	.	16d	.	16b
=135	=135	=135	=135	=135	=135
.	F	8F	2c	16a	8a
.	F	.	.	16b	.
vi7	F	8FF	.	16cc	8A
.	F	.	.	16b	.
V7b	F	8FF	.	16a	8A
.	F	.	.	16g	.
.	F	8A	.	8f	16ccc
.	F	.	.	.	16bb
.	A	8AA	16cc	8ff	16aa
.	A	.	16b	.	16gg
.	G	8AA	16a	8ff	16ff
.	G	.	16g	.	16ee
=136	=136	=136	=136	=136	=136
.	G	8B	4.f	16dd	8dd
.	G	.	.	16ee	.
.	G	8BB	.	16ff	8d
.	G	.	.	16ee	.
iii	G	8BB	.	16dd	8d
.	G	.	.	16cc	.
.	G	8D	8F	8b	16b
.	G	.	.	.	16cc
.	G	8DD	16f	8B	16dd
.	G	.	16e	.	16cc
.	E	8DD	16d	8B	16b
.	E	.	16c	.	16a
=137	=137	=137	=137	=137	=137
.	E	8E	2B	16g	8g
.	E	.	.	16a	.
iii7b	E	8EE	.	16b	8G
.	E	.	.	16a	.
vi	E	8EE	.	16g	8G
.	E	.	.	16f	.
.	E	8G	.	8e	16bb
.	E	.	.	.	16aa
.	E	8GG	16b	8ee	16gg
.	E	.	16a	.	16ff
.	A	8GG	16g	8ee	16ee
.	A	.	16f	.	16dd
=138	=138	=138	=138	=138	=138
.	A	8A	4.e	16cc	8cc
.	A	.	.	16dd	.
vi7b	A	8AA	.	16ee	8c
.	A	.	.	16dd	.
ii	A	8AA	.	16cc	8c
.	A	.	.	16b	.
.	A	8C	8E	8a	16a
.	A	.	.	.	16b
.	A	8CC	16e	8A	16cc
.	A	.	16d	.	16b
.	D	8CC	16c	8A	16a
.	D	.	16B	.	16g
=139	=139	=139	=139	=139	=139
.	D	8D	2A	16f	8f
.	D	.	.	16g	.
ii7b	D	8DD	.	16a	8ff
.	D	.	.	16g	.
V	D	8DD	.	16f	8ff
.	D	.	.	16e	.
.	D	8F	.	8d	16aa
.	D	.	.	.	16gg
.	D	8FF	16a	8dd	16ff
.	D	.	16g	.	16ee
.	G	8FF	16f	8dd	16dd
.	G	.	16e	.	16cc
=140	=140	=140	=140	=140	=140
.	G	8G	4.d	4dd	16b
.	G	.	.	.	16cc
V7b	G	8GG	.	.	16dd
.	G	.	.	.	16cc
.	G	8GG	.	2r	16b
.	G	.	.	.	16a
.	G	8B	8D	.	16g
.	G	.	.	.	16a
.	G	8BB	16d	.	16b
.	G	.	16c	.	16a
vi	G	8BB	16B	.	16g
.	G	.	16A	.	16f
=141	=141	=141	=141	=141	=141
.	G	16C	4G	16e	4e
.	G	16D	.	16f	.
vi7d	G	16E	.	16g	.
.	G	16D	.	16f	.
ii	A	16C	8r	16e	8r
.	A	16BB	.	16d	.
.	A	4AA	16A	4c	16cc
.	A	.	16B	.	16dd
ii7d	A	.	16c	.	16ee
.	A	.	16B	.	16dd
Vb	D	8r	16A	8r	16cc
.	D	.	16G	.	16b
=142	=142	=142	=142	=142	=142
V7b	D	16D	4F	16f	4a
.	D	16E	.	16g	.
.	D	16F	.	16a	.
.	D	16E	.	16g	.
.	G	16D	8r	16f	8r
.	G	16C	.	16e	.
.	G	4BB	16B	4d	16dd
.	G	.	16c	.	16ee
.	G	.	16d	.	16ff
.	G	.	16c	.	16ee
I	G	8r	16B	8r	16dd
.	G	.	16A	.	16cc
=143	=143	=143	=143	=143	=143
.	G	16E	4G	16g	4b
.	G	16F	.	16a	.
.	G	16G	.	16b	.
.	G	16F	.	16a	.
IV	C	16E	8r	16g	8r
.	C	16D	.	16f	.
.	C	4C	16c	4e	16ee
.	C	.	16d	.	16ff
.	C	.	16e	.	16gg
.	C	.	16d	.	16ff
ii	F	8r	16c	8r	16ee
.	F	.	16B	.	16dd
=144	=144	=144	=144	=144	=144
.	F	16F	4A	16a	4cc
.	F	16G	.	16b	.
ii7d	F	16A	.	16cc	.
.	F	16G	.	16b	.
Vb	D	16F	8r	16a	8r
.	D	16E	.	16g	.
V7b	D	4D	16d	4f	16ff
.	D	.	16e	.	16gg
.	D	.	16f	.	16aa
.	D	.	16e	.	16gg
.	G	8r	16d	8r	16ff
.	G	.	16c	.	16ee
=145	=145	=145	=145	=145	=145
.	G	16d	4B	16dd	16dd
.	G	16e	.	16ee	16ee
.	G	16f	.	16ff	16ff
.	G	16e	.	16ee	16ee
.	G	16d	8r	16dd	16dd
.	G	16c	.	16cc	16cc
.	G	16B	16b	16b	16b
.	G	16c	16cc	16cc	16cc
.	G	16d	16dd	16dd	16dd
.	G	16c	16cc	16cc	16cc
.	G	16B	16b	16b	16b
.	G	16A	16a	16a	16a
=146	=146	=146	=146	=146	=146
.	G	[2.G 2.GG	4g	4g	8g
.	G	.	.	.	8gg
v7	G	.	2r	2r	8gg
.	G	.	.	.	8g
.	G	.	.	.	8a-
V7c	G	.	.	.	8a
=147	=147	=147	=147	=147	=147
.	G	2.G 2.GG_	4.r	8r	4.b-
.	G	.	.	8G	.
Ic	G	.	.	8G	.
.	G	.	8D	8g	4.b
.	G	.	8d	8f#	.
.	C	.	8d	8f	.
=148	=148	=148	=148	=148	=148
V	C	2.G 2.GG_	4e	4e	8cc
.	C	.	.	.	8ccc
ic	C	.	2r	2r	8ccc
.	G	.	.	.	8cc
.	G	.	.	.	8dd-
Ic	C	.	.	.	8dd
=149	=149	=149	=149	=149	=149
.	C	2.G 2.GG_	4.r	8r	4.ee-
V7c/IV	C	.	.	8c	.
iib	C	.	.	8c	.
.	C	.	8G	8cc	4.ee
.	C	.	8g	8b	.
II	D	.	8g	8b-	.
=150	=150	=150	=150	=150	=150
.	D	2.G 2.GG_	8F	8a	4.ff
V7/V	D	.	8f	8d	.
V	D	.	8f	8d	.
.	D	.	8A	8dd	4.ff#
.	D	.	8a	8cc#	.
.	G	.	8a	8cc	.
=151	=151	=151	=151	=151	=151
V7b/V	G	8G 8GG]	8G	4.b	8gg
V7d	G	8GG	8g	.	16b
.	G	.	.	.	16cc
Ib	G	8GG	8g	.	16b
.	G	.	.	.	16a
.	D	8G	16B	8g	4g
.	D	.	16G	.	.
iiic	G	8F#	16c	8a	.
.	G	.	16G	.	.
iic	C	8F	16d	8b	8r
.	C	.	16G	.	.
=152	=152	=152	=152	=152	=152
.	C	8E	4e	8cc	2r
ii7	E	8C	.	8dd	.
V7	D	8BB	2r	8ee	.
.	D	4AA	.	8ff	.
I	D	.	.	8dd	8ff
iib	G	8D	.	8cc	[8ff
=153	=153	=153	=153	=153	=153
.	G	4GG	8r	4b	8ff]
IV	C	.	8d	.	16gg
.	C	.	.	.	16ff
V7d	D	8C	8e	8cc	4ee
.	D	8FF	8f	4.a	.
Ib	F	8F	8B	.	8dd
ii	G	[8F	8c	.	8cc
=154	=154	=154	=154	=154	=154
.	G	8F]	4d	4.g	4b
ii7d	C	16G	.	.	.
.	C	16F	.	.	.
V7b	D	4E	8c	.	8cc
.	D	.	4.A	8d	8f
I	D	8D	.	8d	8f
iib	G	8C	.	8d	[8f
=155	=155	=155	=155	=155	=155
.	G	4BB	4.G	4d	8f]
V	C	.	.	.	16g
.	C	.	.	.	16f
I	D	8C	.	8c	8e
.	D	8FF	4F	4A	8d
.	G	8DD	.	.	8f
.	C	8GG	8D	8B	8B
=156	=156	=156	=156	=156	=156
.	C	8CC	8E	8c	8c
VIb	C	8c	8cc	8cc	8cc
ii	C	8c	8cc	8cc	8cc
ib	A	8C	8c	8c	8c
.	D	8D-	8d-	8d-	8d-
.	C	8D	8d	8d	8d
=157	=157	=157	=157	=157	=157
ii	C	8E-	8e-	8e-	8e-
ib	C	8c	8cc	8cc	8cc
Ib	D	8c	8cc	8cc	8cc
IV	C	8D	8d	8d	8d
I	C	8E-	8e-	8e-	8e-
.	F	8E	8e	8e	8e
=158	=158	=158	=158	=158	=158
.	C	8F	8f	8f	8f
iib	C	8c	8cc	8cc	8cc
IIb	C	8c	8cc	8cc	8cc
V	D	8E	8e	8e	8e
.	D	8F	8f	8f	8f
iic	G	8F#	8f#	8f#	8f#
=159	=159	=159	=159	=159	=159
I	G	8G	8g	8g	8g
ii7d	D	16A	16a	16a	16a
.	D	16G	16g	16g	16g
.	C	16A	16a	16a	16a
.	r	16B	16b	16b	16b
.	D	8c	8cc	8cc	8cc
.	D	16d	16dd	16dd	16dd
.	D	16c	16cc	16cc	16cc
Vb	D	16d	16dd	16dd	16dd
.	D	16e	16ee	16ee	16ee
=160	=160	=160	=160	=160	=160
I	D	8f	8ff	8ff	8ff
vi	G	8d	8dd	8dd	8dd
.	C	8B	8b	8b	8b
IV	A	8c	8cc	8cc	8cc
.	A	8A	8a	8a	8a
V7	F	8E	8e	8e	8e
=161	=161	=161	=161	=161	=161
.	r	4F	4f	4f	4f
I	G	8r	8r	8r	8r
.	r	4GG 4G	4f 4G	4b 4G 4d	4G 4b 4d
.	C	8r	8r	8r	8r
=162	=162	=162	=162	=162	=162
.	r	4.c 4.GG 4.E 4.CC	4G 4C 4e	4cc 4G 4e	4cc 4e 4G
.	r	.	2r	2r	2r
.	r	4.r	.	.	.
==	==	==	==	==	==
*-	*-	*-	*-	*-	*-
!!!RWG1: This file contains only pitch and duration data.
!!!RWG2: Transposing instruments are not transposed.
!!!RWG3: Spines may have incompatible meters.
!!!RWG4: Durations of rests and tied notes may be interpreted.
!!!RWG: Key is interpreted using the Humdrum key tool.
!!!GTL: 6 Divertimentos ("Sun")
!!!AFT: stage1
!!!END: 1997/04/15
!!!KEY: 2145669914
!!!EMD: Converted from MuseData to Humdrum Dec 16, 2000, by Andreas Kornstaedt using muse2kern.
!!!EMD: Manual editing by Craig Sapp, Nov 2001
